X: 6148
T: Captain O'Kane
R: waltz
M: 3/4
K: Eminor
|:ED|B,2E2F2|G4FE|FG AG FE|D2E3F|
G2B3G|BA GF ED|B,2E2EF|E4:|
|:EF|G2B2B2|B4AG|F2A2A2|A4dc|B2e3e|e2f2g2|
B2e2^d2|e4ef|g2f2e2|d2c2B2|AGF2d2|
D3EF2|G2B3G|BA GF ED|B,2E2EF|E4:|
|:ED|"Em"B,2E2F2|G4FE|"D"FG AG FE|"Bm"D2E2F2|
"C"G2B2G2|BA GF ED|"Em"B,2E2ED|"Am"E4:|
|:EF|"Em"G2B2B2|B4AG|"D"F2A2A2|"Bm"A4dc|"Am"B2e3e|"C"e2f2g2|
"Am"B2e2^d2|"C"e4 "D"ef|"Em"g2f2e2|"Em7"d2c2B2|"D"AGF2d2|"Bm"D2E2F2
[1 "C"G2B2G2|BA GF ED|"Em"B,2E2EF|"Am"E4:|2
"Am"G2B2G2|"Em"BA GF ED|"Am"B,2E2EF|"Em"E4||
|:BA|G2G2A2|B4AG|AB cB AG|F2G2A2|
B2d2B2|dc BA GF|G2B2A2|B4:|
|:BA|G2d2d2|d4cB|A2d3e|f4d2|e2g3f|g2a2b2|
e2g2f2|g4 ga|b2a2g2|g2e2d2|AGF2d2|F2G2A2|1
B2d2B2|dc BA GF|G2B2A2|B4:|2
B2d2B2|dc BA GF|G2B2A2|B4||

